svgs/sharp-solid/toilets-portable.svg

<svg xmlns="http://www.w3.org/2000/svg" viewBox="0 0 576 512"><!--! Font Awesome Pro 6.6.0 by @fontawesome - https://fontawesome.com License - https://fontawesome.com/license (Commercial License) Copyright 2024 Fonticons, Inc. --><path d="M256 0l0 64L0 64 0 0 256 0zM0 96l24 0 208 0 24 0 0 24 0 368 0 24-48 0 0-24 0-8L48 480l0 8 0 24L0 512l0-24L0 120 0 96zM208 224l-32 0 0 16 0 64 0 16 32 0 0-16 0-64 0-16zM576 0l0 64L320 64l0-64L576 0zM320 96l24 0 208 0 24 0 0 24 0 368 0 24-48 0 0-24 0-8-160 0 0 8 0 24-48 0 0-24 0-368 0-24zM528 224l-32 0 0 16 0 64 0 16 32 0 0-16 0-64 0-16z"/></svg>

<svg xmlns="http://www.w3.org/2000/svg" viewBox="0 0 576 512"><!--! Font Awesome Pro 6.4.2 by @fontawesome - https://fontawesome.com License - https://fontawesome.com/license (Commercial License) Copyright 2023 Fonticons, Inc. --><path d="M256 0V64H0V0H256zM0 96H24 232h24v24V488v24H208V488v-8H48v8 24H0V488 120 96zM208 224H176v16 64 16h32V304 240 224zM576 0V64H320V0H576zM320 96h24H552h24v24V488v24H528V488v-8H368v8 24H320V488 120 96zM528 224H496v16 64 16h32V304 240 224z"/></svg>
